resources/img/btn_line.svg

<svg fill="none" height="51" viewBox="0 0 51 51" width="51" xmlns="http://www.w3.org/2000/svg"><rect fill="#00b900" height="50.9999" rx="10" width="51"/><path d="m43.8625 23.2733c0-8.2534-8.274-14.96808-18.445-14.96808-10.1695 0-18.44454 6.71468-18.44454 14.96808 0 7.3992 6.56194 13.5958 15.42564 14.7676.6007.1294 1.4182.396 1.6251.9094.186.4664.1216 1.1969.0594 1.6679 0 0-.2164 1.3016-.2631 1.5788-.0802.4664-.3705 1.8238 1.5975.9943 1.9688-.8296 10.6225-6.2547 14.4922-10.7088h-.0007c2.6731-2.9312 3.9535-5.906 3.9535-9.2092z" fill="#fff"/><g fill="#00b900"><path d="m37.7199 21.2974c.1983 0 .3585-.1605.3585-.3592v-1.2938c0-.1984-.1602-.3596-.3585-.3596h-5.1684-.0007c-.0969 0-.1842.0389-.2489.1015-.0014.0014-.0032.0025-.0043.0039-.0021.0021-.0039.0042-.0056.0063-.0616.0644-.0997.1514-.0997.2476v.0003 8.0357.0003c0 .0965.0385.1839.1004.2482.0014.0018.0032.0039.0049.0053.0014.0018.0036.0036.0053.005.0644.0619.1517.1004.2479.1004h.0007 5.1684c.1983 0 .3585-.1612.3585-.3592v-1.2942c0-.198-.1602-.3592-.3585-.3592h-3.515v-1.3585h3.515c.1983 0 .3585-.1609.3585-.3593v-1.2937c0-.1984-.1602-.3596-.3585-.3596h-3.515v-1.3582z"/><path d="m30.5751 19.2849h-1.2937c-.1984 0-.3593.1609-.3593.3586v4.7748l-3.683-4.9739c-.0084-.0127-.018-.0248-.0279-.0364l-.0025-.0022c-.007-.0081-.0141-.0152-.0215-.0222-.0022-.0021-.0043-.0039-.0068-.006-.006-.0057-.0123-.011-.019-.0159-.0029-.0029-.0061-.005-.0092-.0075-.0064-.0042-.0124-.0088-.0188-.0127-.0035-.0025-.007-.0046-.0109-.0064-.0064-.0039-.0128-.0077-.0191-.0109-.0039-.0018-.0075-.0039-.0113-.0053-.0068-.0032-.0135-.0064-.0206-.0089-.0042-.0014-.0077-.0028-.0116-.0042-.0071-.0025-.0142-.005-.0216-.0067-.0039-.0014-.0081-.0022-.0124-.0036-.007-.0014-.0138-.0032-.0205-.0046-.0049-.0007-.0102-.0014-.0152-.0017-.0063-.0014-.0127-.0018-.0191-.0025-.006-.0007-.012-.0007-.0184-.0011-.0046 0-.0081-.0007-.0127-.0007h-1.2934c-.1984 0-.3596.1609-.3596.3586v8.037c0 .198.1612.3586.3596.3586h1.2934c.1987 0 .3596-.1606.3596-.3586v-4.7734l3.6876 4.9803c.0254.036.0569.0654.0912.0887.0011.0007.0025.0018.0035.0029.0075.0045.0149.0091.0223.0134.0035.0021.0067.0035.0103.0053.0053.0032.0113.006.0169.0085.0061.0025.0114.0049.0177.0074.0036.0014.0071.0028.0106.0039.0085.0032.0163.0057.0244.0081.0018 0 .0036.0007.0053.0011.0294.0078.0601.0124.092.0124h1.2937c.1988 0 .3593-.1606.3593-.3586v-8.037c0-.1977-.1605-.3586-.3593-.3586z"/><path d="m21.6702 19.2849h-1.2938c-.1983 0-.3596.1609-.3596.3586v8.037c0 .198.1613.3586.3596.3586h1.2938c.1984 0 .3593-.1606.3593-.3586v-8.037c0-.1977-.1609-.3586-.3593-.3586z"/><path d="m18.5514 26.0267h-3.5154v-6.3826c0-.1984-.1609-.3593-.3589-.3593h-1.2941c-.1984 0-.3593.1609-.3593.3593v8.0356.0007c0 .0965.0386.1839.1005.2482.0014.0018.0028.0036.0049.0053.0018.0018.0035.0032.0053.005.0647.0622.1517.1004.2482.1004h.0004 5.1684c.1984 0 .3585-.1612.3585-.3596v-1.2938c0-.1983-.1601-.3592-.3585-.3592z"/></g></svg>

<svg width="51" height="51" viewBox="0 0 51 51" fill="none" xmlns="http://www.w3.org/2000/svg">
<rect width="51" height="50.9999" rx="10" fill="#00B900"/>
<path d="M43.8625 23.2733C43.8625 15.0199 35.5885 8.30522 25.4175 8.30522C15.248 8.30522 6.97296 15.0199 6.97296 23.2733C6.97296 30.6725 13.5349 36.8691 22.3986 38.0409C22.9993 38.1703 23.8168 38.4369 24.0237 38.9503C24.2097 39.4167 24.1453 40.1472 24.0831 40.6182C24.0831 40.6182 23.8667 41.9198 23.82 42.197C23.7398 42.6634 23.4495 44.0208 25.4175 43.1913C27.3863 42.3617 36.04 36.9366 39.9097 32.4825H39.909C42.5821 29.5513 43.8625 26.5765 43.8625 23.2733Z" fill="white"/>
<path d="M37.7199 21.2974C37.9182 21.2974 38.0784 21.1369 38.0784 20.9382V19.6444C38.0784 19.446 37.9182 19.2848 37.7199 19.2848H32.5515H32.5508C32.4539 19.2848 32.3666 19.3237 32.3019 19.3863C32.3005 19.3877 32.2987 19.3888 32.2976 19.3902C32.2955 19.3923 32.2937 19.3944 32.292 19.3965C32.2304 19.4609 32.1923 19.5479 32.1923 19.6441V19.6444V27.6801V27.6804C32.1923 27.7769 32.2308 27.8643 32.2927 27.9286C32.2941 27.9304 32.2959 27.9325 32.2976 27.9339C32.299 27.9357 32.3012 27.9375 32.3029 27.9389C32.3673 28.0008 32.4546 28.0393 32.5508 28.0393H32.5515H37.7199C37.9182 28.0393 38.0784 27.8781 38.0784 27.6801V26.3859C38.0784 26.1879 37.9182 26.0267 37.7199 26.0267H34.2049V24.6682H37.7199C37.9182 24.6682 38.0784 24.5073 38.0784 24.3089V23.0152C38.0784 22.8168 37.9182 22.6556 37.7199 22.6556H34.2049V21.2974H37.7199Z" fill="#00B900"/>
<path d="M30.5751 19.2849H29.2814C29.083 19.2849 28.9221 19.4458 28.9221 19.6435V24.4183L25.2391 19.4444C25.2307 19.4317 25.2211 19.4196 25.2112 19.408L25.2087 19.4058C25.2017 19.3977 25.1946 19.3906 25.1872 19.3836C25.185 19.3815 25.1829 19.3797 25.1804 19.3776C25.1744 19.3719 25.1681 19.3666 25.1614 19.3617C25.1585 19.3588 25.1553 19.3567 25.1522 19.3542C25.1458 19.35 25.1398 19.3454 25.1334 19.3415C25.1299 19.339 25.1264 19.3369 25.1225 19.3351C25.1161 19.3312 25.1097 19.3274 25.1034 19.3242C25.0995 19.3224 25.0959 19.3203 25.0921 19.3189C25.0853 19.3157 25.0786 19.3125 25.0715 19.31C25.0673 19.3086 25.0638 19.3072 25.0599 19.3058C25.0528 19.3033 25.0457 19.3008 25.0383 19.2991C25.0344 19.2977 25.0302 19.2969 25.0259 19.2955C25.0189 19.2941 25.0121 19.2923 25.0054 19.2909C25.0005 19.2902 24.9952 19.2895 24.9902 19.2892C24.9839 19.2878 24.9775 19.2874 24.9711 19.2867C24.9651 19.286 24.9591 19.286 24.9527 19.2856C24.9481 19.2856 24.9446 19.2849 24.94 19.2849H23.6466C23.4482 19.2849 23.287 19.4458 23.287 19.6435V27.6805C23.287 27.8785 23.4482 28.0391 23.6466 28.0391H24.94C25.1387 28.0391 25.2996 27.8785 25.2996 27.6805V22.9071L28.9872 27.8874C29.0126 27.9234 29.0441 27.9528 29.0784 27.9761C29.0795 27.9768 29.0809 27.9779 29.0819 27.979C29.0894 27.9835 29.0968 27.9881 29.1042 27.9924C29.1077 27.9945 29.1109 27.9959 29.1145 27.9977C29.1198 28.0009 29.1258 28.0037 29.1314 28.0062C29.1375 28.0087 29.1428 28.0111 29.1491 28.0136C29.1527 28.015 29.1562 28.0164 29.1597 28.0175C29.1682 28.0207 29.176 28.0232 29.1841 28.0256C29.1859 28.0256 29.1877 28.0263 29.1894 28.0267C29.2188 28.0345 29.2495 28.0391 29.2814 28.0391H30.5751C30.7739 28.0391 30.9344 27.8785 30.9344 27.6805V19.6435C30.9344 19.4458 30.7739 19.2849 30.5751 19.2849Z" fill="#00B900"/>
<path d="M21.6702 19.2849H20.3764C20.1781 19.2849 20.0168 19.4458 20.0168 19.6435V27.6805C20.0168 27.8785 20.1781 28.0391 20.3764 28.0391H21.6702C21.8686 28.0391 22.0295 27.8785 22.0295 27.6805V19.6435C22.0295 19.4458 21.8686 19.2849 21.6702 19.2849Z" fill="#00B900"/>
<path d="M18.5514 26.0267H15.036V19.6441C15.036 19.4457 14.8751 19.2848 14.6771 19.2848H13.383C13.1846 19.2848 13.0237 19.4457 13.0237 19.6441V27.6797V27.6804C13.0237 27.7769 13.0623 27.8643 13.1242 27.9286C13.1256 27.9304 13.127 27.9322 13.1291 27.9339C13.1309 27.9357 13.1326 27.9371 13.1344 27.9389C13.1991 28.0011 13.2861 28.0393 13.3826 28.0393H13.383H18.5514C18.7498 28.0393 18.9099 27.8781 18.9099 27.6797V26.3859C18.9099 26.1876 18.7498 26.0267 18.5514 26.0267Z" fill="#00B900"/>
</svg>
